X:5896
T:Gan Ainm
R:Reel
S:
H:
C:Paddy O'Brien
N:Slightly different in 'the Music Of Paddy O'Brien'
D:
Z:Adrian Scahill
M:4/4
L:1/8
K:C
efed cGEG|EFDE FAdf|ecc2 GFEG|FEDF ECEG|\
c2Bd cAGE|AFDE FAdf|ecc2 Gcec|efdf ecc2:||\
cBcd ecc2|Gcef gfeg|fedc ADDE|FAde f2ed|\
c2Bd cdef|gcec Gcec|f2de fdBG|^FGAB c4:||


